X:1
T:Title
T:Polonaise Brillante Edits
T:Transcribed: Robert Choi
C:Composer
L:1/8
M:3/4
K:C
V:1 treble nm="Piano" snm="Pno."
V:1
 x6 | .!1!E(!thumb!!3!f' e'_e' d'^c') | (d'_e' d'^c' =c'b) | (c'^c' =c'b _ba) | (a^g ag ag) | %5
!>(! b3 (u!1!^D/E/ F/E/D/!1!E/!>)! | .!4!^G)(^D/E/ .!3!B)(D/E/ !0!e) z |[K:bass][K:bass] x6 | x6 | %9
[K:tenor]!>(! (A ^G2) (G!>)! A=G) |!>(! ((!2!G ^F2) .F)!>)! (!1!G/A/_B/G/) | %11
[K:bass] (!4!=F/E/D/!1!E/) (!>!G2 F) z | %12
!ff! u!0!C,, v!1!!2![E,C]2 u!2!!3![F,_D]2 v!2!!4![_B,,F,=D]- | %13
 [B,,F,D] v!1!!2!!4![A,,F,D]2 v!1!!2!!4![_A,,F,D]2 u!0!!2!!4![G,,F,D] |[K:bass] x6 | x6 | %16
[K:treble] !1!^c/!thumb!E/A/c/ e/E/B/e/ !3!=f/!thumb!F/=c/_e/ | d/F/_B/d/ f/F/c/f/ !3!g/G/d/f/ | %18
 e z (!1!!3![_D_B]3 !1!!3![_F_d]) | [_F_d] z (!1!!3![_B,G]3 [_D_B]) | %20
 [_D_B] z[K:bass] (!1!!3![G,E]3 !2!!4![_B,G]) | [_B,G] z _D,4 | (C,2!p! !4!C) z z2 | %23
 (!1!_D,2 !4!C) z z2 |"_II" (!0!=D,2 !4!C)(!1!^D, !4!C/) z/ (!1!E,- | %25
"^rall." E, G,2)!>(! (_B,{CB,A,B,} !0!DC)!>)! |[K:tenor][K:tenor] x6 | x6 | %28
[K:treble] (3(!1!c/_d/c/(3!2!_c/__d/c/ (3!1!_B/=c/B/)(3(!thumb!^G/!1!A/!3!c/) (3u!2!a/ z/ (!2!c/(3=B/c/!thumb!A/) | %29
 !1!E(!thumb!!3!f' e'_e' d'^c') | (d'_e' d'^c' =c'b) | (c'^c' =c'b _ba) | (a^g ag ag) | %33
!>(! vb3 z z"_*An extra measure is added here.\n Add one measure of rest to the piano score." (u!1!^D/E/!>)! | %34
 F/E/^D/!1!E/"^rall." .!4!^G)!<(!(D/E/ F/E/D/E/ | .B)!<)!!<(!(^D/E/ F/E/D/E/ .!0!e)!<)! z | %36
[K:bass]!ff!({!0!=G,,!3!B,)} vG4 G2- | G2!<(! .vG2 .uG2!<)! |"^M" G3 uE/vF/ (!2!G/A/G/^F/) | %39
[K:bass] x6 | %40

